X:203
T:Scotch Sett Of Quadrilles No.3. Le4.203
M:6/8
L:1/8
Q:3/8=90
B:L.Leadley MS#4 c1850
Z:Village Music Project 2016 Steve Mansfield
K:G
g | dBB BAG | dBB B2g | dBB {c}BAB | GEE E2g |
dBB BAG | dBB B2g | gfg bab | gee e2 ||
e | gfg aga | bge dcB | gfg aga | bge ega |
bag agf | gfe ^d=cB | Bbb c'^ab | gee e2 !segno! ||
B | e3 f3 | gec B^AB | e3 {g}fef | gee e3 |
g3 aga | bge ^dcB | Bbb b^ab | gee e2 !D.C.! |]

